src/assets/icons/folder.svg

<svg width="14" height="14" viewBox="0 0 14 14" fill="none" xmlns="http://www.w3.org/2000/svg">
<g id="folder">
<g clip-path="url(#clip0_156_4504)">
<path id="Vector" fill-rule="evenodd" clip-rule="evenodd" d="M2.33333 2.12121C1.75145 2.12121 1.27273 2.59993 1.27273 3.18181V10.8182C1.27273 11.4001 1.75145 11.8788 2.33333 11.8788H11.6667C12.2485 11.8788 12.7273 11.4001 12.7273 10.8182V6.15151C12.7273 5.56963 12.2485 5.0909 11.6667 5.0909H7C6.81423 5.0909 6.63773 5.00973 6.51684 4.86868L4.16186 2.12121H2.33333ZM0 3.18181C0 1.89703 1.04855 0.84848 2.33333 0.84848H4.45455C4.64032 0.84848 4.81681 0.929657 4.93771 1.0707L7.29269 3.81818H11.6667C12.9515 3.81818 14 4.86672 14 6.15151V10.8182C14 12.103 12.9515 13.1515 11.6667 13.1515H2.33333C1.04855 13.1515 0 12.103 0 10.8182V3.18181Z" fill="black"/>
</g>
</g>
<defs>
<clipPath id="clip0_156_4504">
<rect width="14" height="14" fill="white"/>
</clipPath>
</defs>
</svg>

<svg xmlns="http://www.w3.org/2000/svg" fill="none" viewBox="0 0 14 14"><g clip-path="url(#a)"><path fill="#000" fill-rule="evenodd" d="M2.333 2.121c-.582 0-1.06.479-1.06 1.06v7.637c0 .582.478 1.06 1.06 1.06h9.334c.582 0 1.06-.478 1.06-1.06V6.152c0-.582-.479-1.061-1.06-1.061H7a.64.64 0 0 1-.483-.222L4.162 2.12zM0 3.181A2.34 2.34 0 0 1 2.333.849h2.122c.185 0 .362.082.483.223l2.355 2.747h4.374A2.34 2.34 0 0 1 14 6.152v4.666a2.34 2.34 0 0 1-2.333 2.334H2.333A2.34 2.34 0 0 1 0 10.818z" clip-rule="evenodd"/></g><defs><clipPath id="a"><path fill="#fff" d="M0 0h14v14H0z"/></clipPath></defs></svg>
